assets/bitcoin-color/BitcoinColor1.svg

<svg xmlns="http://www.w3.org/2000/svg" viewBox="0 0 54 60"><g fill="#000" fill-rule="evenodd"><path d="M11.201 27.211a17.273 17.273 0 016.772-9.495c.484-.337.987-.654 1.51-.944.039-.022.08-.04.119-.061a17.417 17.417 0 018.329-2.138 17.43 17.43 0 0115.227 8.951c2.771 4.979 2.811 10.737.646 15.577-.056.125-.109.252-.168.375-.059.124-.106.253-.167.375a17.57 17.57 0 01-1.662 2.649c-.195.257-.404.502-.613.749-.368.433-.757.849-1.172 1.248h1.087c.382-.4.748-.815 1.091-1.248h6.544c.396 0 .743.293.743.627 0 .328-.34.615-.729.621-.005 0-.009.003-.014.003H6.019c-.005 0-.009-.003-.014-.003-.389-.006-.728-.293-.728-.621 0-.334.346-.627.742-.627h7.693c.344.433.703.851 1.081 1.248h1.06a16.988 16.988 0 01-3.123-4.048c-.109-.196-.195-.399-.295-.598a14.507 14.507 0 01-.185-.375c-.061-.124-.129-.248-.186-.375a17.272 17.272 0 01-.863-11.89zm41.525 17.286V59.18H2.037V42.401a2.553 2.553 0 012.549-2.55H11.6c.155.322.299.647.474.962.327.587.691 1.146 1.075 1.687h-7.13c-.809 0-1.492.63-1.492 1.376 0 .222.068.432.175.621.252.442.751.753 1.317.753h42.725c.567 0 1.066-.311 1.318-.753a1.25 1.25 0 00.175-.621c0-.746-.683-1.376-1.493-1.376h-6.008a17.868 17.868 0 001.562-2.649h5.879a2.553 2.553 0 012.549 2.55v2.096zm-2.549-5.396h-5.539c.293-.692.561-1.399.77-2.135a18.033 18.033 0 00-1.594-13.807 18.183 18.183 0 00-15.883-9.336 18.165 18.165 0 00-11.869 4.431c-.507.439-.984.907-1.437 1.397a18.054 18.054 0 00-4.145 7.354 18.017 18.017 0 00.759 12.096H4.586a3.304 3.304 0 00-3.299 3.3v17.154c0 .207.168.375.375.375h51.439a.375.375 0 00.375-.375V42.401c0-1.819-1.481-3.3-3.299-3.3z"/><path d="M13.572 39.476c.066.124.118.253.186.375.004.007.006.014.01.019a16.145 16.145 0 002.507 3.379c.429.444.885.859 1.359 1.248h1.225a15.22 15.22 0 01-2.255-1.997 15.412 15.412 0 01-1.974-2.649c-.068-.115-.142-.227-.207-.344l-.015-.031c-.068-.122-.121-.251-.185-.375-1.827-3.518-2.25-7.531-1.159-11.36a15.369 15.369 0 017.36-9.276 15.502 15.502 0 017.326-1.949c.061-.001.121-.005.182-.005.687 0 1.369.046 2.039.137 4.812.638 9.1 3.511 11.495 7.818 2.446 4.399 2.496 9.481.607 13.768-.129.292-.256.584-.402.867-.066.128-.144.249-.213.375-.069.127-.14.252-.213.375-.093.158-.176.32-.273.474a15.485 15.485 0 01-1.687 2.175c-.24.259-.498.505-.758.749-.47.443-.965.862-1.499 1.248h1.223c.281-.231.547-.473.81-.721.185-.176.377-.344.553-.527.233-.241.445-.496.66-.749.048-.058.099-.113.147-.172a16.094 16.094 0 001.685-2.477c.07-.126.147-.247.213-.375.065-.123.124-.248.186-.375 2.242-4.606 2.289-10.194-.384-15a16.243 16.243 0 00-14.189-8.34c-.761 0-1.521.061-2.273.168a16.243 16.243 0 00-5.599 1.881 16.111 16.111 0 00-7.716 9.726c-1.11 3.889-.725 7.959 1.044 11.565.061.125.12.252.184.375"/><path d="M22.285 26.864l.003-.001.003-.002 3.656-2.034c.002-.002.004-.001.005-.002l.005-.004.217-.121c.8-.443 1.725-.55 2.603-.299a3.4 3.4 0 012.053 1.627 3.43 3.43 0 01-1.328 4.659l-6.004 3.34-3.329-5.986 2.116-1.177zm10.701 10.587l-.01.002c-.003.002-.005.007-.008.008l-2.951 1.64-.674.375-.025.015h-.004l-.002.002-.644.358-1.474.821-.456-.821-.418-.75-2.457-4.418 7.585-4.218a3.43 3.43 0 014.66 1.331c.438.788.548 1.737.3 2.604a3.448 3.448 0 01-1.629 2.053l-1.793.998zm4.144-2.845a4.15 4.15 0 00-.367-3.177c-1.037-1.864-3.295-2.605-5.224-1.815a4.174 4.174 0 00-2.556-5.935 4.143 4.143 0 00-3.062.317l-1.773-3.184a.373.373 0 00-.509-.146.376.376 0 00-.146.511l1.767 3.173-3.008 1.674-1.766-3.176a.374.374 0 00-.655.364l1.766 3.177-4.17 2.319a.375.375 0 10.364.656l.092-.052 1.631-.906 3.224 5.797.125.225a.374.374 0 00.307.585c.006 0 .011-.004.017-.004l.428.771 1.848 3.321.209.375.208.375.659 1.185-1.625.904-.101.055a.375.375 0 00-.147.505l.002.005a.373.373 0 00.51.146l.272-.151 3.902-2.171 1.206 2.171.417.749.141.255a.374.374 0 00.51.146.372.372 0 00.181-.401c-.008-.037-.016-.074-.036-.109l-.355-.64-1.409-2.535.204-.114.674-.375 2.129-1.183.449.808.209.375.208.375.898 1.617a.377.377 0 00.51.146.375.375 0 00.146-.51l-.696-1.253-.209-.375-.208-.375-.652-1.172 1.475-.82a4.21 4.21 0 001.986-2.503zM8.11 53.482H9l-.445-2.971-.445 2.971zm2.106 1.863h-.931l-.16-1.065H7.993l-.16 1.065h-.848l.94-5.874h1.351l.94 5.874zM15.423 53.155v.781c0 .939-.47 1.476-1.376 1.476-.907 0-1.377-.537-1.377-1.476v-3.055c0-.94.47-1.478 1.377-1.478.906 0 1.376.538 1.376 1.478v.57h-.873v-.629c0-.42-.184-.579-.478-.579s-.479.159-.479.579v3.172c0 .42.185.571.479.571s.478-.151.478-.571v-.839h.873M20.763 53.155v.781c0 .939-.469 1.476-1.376 1.476-.907 0-1.376-.537-1.376-1.476v-3.055c0-.94.469-1.478 1.376-1.478.907 0 1.376.538 1.376 1.478v.57h-.872v-.629c0-.42-.185-.579-.479-.579-.293 0-.478.159-.478.579v3.172c0 .42.185.571.478.571.294 0 .479-.151.479-.571v-.839h.872M24.35 51.947h1.267v.839H24.35v1.72h1.595v.839h-2.518v-5.874h2.518v.839H24.35v1.637M29.54 50.31v1.989h.436c.294 0 .453-.134.453-.554v-.881c0-.42-.159-.554-.453-.554h-.436zm1.813.613v.763c0 .94-.454 1.452-1.377 1.452h-.436v2.207h-.924v-5.874h1.36c.923 0 1.377.512 1.377 1.452zM33.654 49.471h2.854v.839h-.965v5.035h-.923V50.31h-.966v-.839M39.935 51.947h1.267v.839h-1.267v1.72h1.595v.839h-2.518v-5.874h2.518v.839h-1.595v1.637M45.124 50.31v4.196h.521c.293 0 .47-.151.47-.57v-3.055c0-.42-.177-.571-.47-.571h-.521zm-.923-.839h1.461c.923 0 1.376.512 1.376 1.452v2.971c0 .939-.453 1.451-1.376 1.451h-1.461v-5.874zM5.589 16.958l1.759-1.91c.382-.415.627-1.144.117-1.613-.591-.545-1.216-.166-1.667.323l-.801.87c-.301.326-.566.697-.685 1.153l1.277 1.177zm-2.031-1.872c.104-.469.377-.82.684-1.153l.801-.87c.42-.455.464-.967-.005-1.398-.482-.445-.933-.283-1.34.159l-1.69 1.835 1.55 1.427zm4.462.719l-2.366 2.568-5.069-4.669 2.365-2.568c.789-.856 1.873-1.038 2.764-.219.434.401.664.902.579 1.376.489-.203 1.243-.149 1.943.495 1.005.927.56 2.174-.216 3.017zM11.855 12.555L8.032 6.818l.823-.549 3.823 5.737-.823.549M15.715 3.984l2.103 5.49-.915.351-2.103-5.49-2.296.88-.363-.95 5.48-2.1.364.95-2.27.869M27.184 2.594a2.802 2.802 0 00-2.061-.702c-1.529.097-2.64 1.267-2.542 2.815.094 1.483 1.442 2.49 2.88 2.399a2.716 2.716 0 002.115-1.216l.671.8a3.772 3.772 0 01-2.732 1.421c-2.082.131-3.797-1.389-3.927-3.462-.128-2.027 1.509-3.647 3.48-3.771a3.74 3.74 0 012.713.92l-.597.796M35.438 3.075c-1.475-.418-2.913.317-3.335 1.81-.406 1.431.532 2.83 1.918 3.223 1.423.403 2.917-.364 3.325-1.804.413-1.458-.494-2.829-1.908-3.229zm-1.7 5.999C31.73 8.505 30.618 6.5 31.185 4.5c.554-1.955 2.637-2.939 4.54-2.4 1.963.556 3.128 2.547 2.566 4.529-.554 1.955-2.633 2.989-4.553 2.445zM39.552 11.347l3.533-5.907.848.507-3.534 5.907-.847-.507M47.437 8.18l.916.926-.63 6.846 3.741-3.702.715.721-4.897 4.846-.701-.709.587-6.141-3.367 3.332-.696-.702 4.207-4.164.125-1.253"/></g></svg>

<?xml version="1.0" encoding="UTF-8"?>
<svg width="54px" height="60px" viewBox="0 0 54 60" version="1.1" xmlns="http://www.w3.org/2000/svg" xmlns:xlink="http://www.w3.org/1999/xlink">
    <!-- Generator: Sketch 49 (51002) - http://www.bohemiancoding.com/sketch -->
    <title>bitcoin-grey-1</title>
    <desc>Created with Sketch.</desc>
    <defs></defs>
    <g id="Page-1" stroke="none" stroke-width="1" fill="none" fill-rule="evenodd">
        <g id="bitcoin-grey-1" fill="#000000">
            <path d="M11.201,27.211 C12.313,23.314 14.69,20 17.973,17.716 C18.457,17.379 18.96,17.062 19.483,16.772 C19.522,16.75 19.563,16.732 19.602,16.711 C22.159,15.314 25.035,14.573 27.931,14.573 C34.253,14.573 40.088,18.002 43.158,23.524 C45.929,28.503 45.969,34.261 43.804,39.101 C43.748,39.226 43.695,39.353 43.636,39.476 C43.577,39.6 43.53,39.729 43.469,39.851 C43,40.779 42.439,41.662 41.807,42.5 C41.612,42.757 41.403,43.002 41.194,43.249 C40.826,43.682 40.437,44.098 40.022,44.497 L41.109,44.497 C41.491,44.097 41.857,43.682 42.2,43.249 L48.744,43.249 C49.14,43.249 49.487,43.542 49.487,43.876 C49.487,44.204 49.147,44.491 48.758,44.497 C48.753,44.497 48.749,44.5 48.744,44.5 L6.019,44.5 C6.014,44.5 6.01,44.497 6.005,44.497 C5.616,44.491 5.277,44.204 5.277,43.876 C5.277,43.542 5.623,43.249 6.019,43.249 L13.712,43.249 C14.056,43.682 14.415,44.1 14.793,44.497 L15.853,44.497 C15.441,44.1 15.045,43.688 14.673,43.249 C14.466,43.006 14.266,42.755 14.071,42.5 C13.581,41.853 13.131,41.17 12.73,40.449 C12.621,40.253 12.535,40.05 12.435,39.851 C12.372,39.728 12.31,39.602 12.25,39.476 C12.189,39.352 12.121,39.228 12.064,39.101 C10.382,35.364 10.064,31.198 11.201,27.211 Z M52.726,44.497 L52.726,59.18 L2.037,59.18 L2.037,42.401 C2.037,40.995 3.181,39.851 4.586,39.851 L11.6,39.851 C11.755,40.173 11.899,40.498 12.074,40.813 C12.401,41.4 12.765,41.959 13.149,42.5 L6.019,42.5 C5.21,42.5 4.527,43.13 4.527,43.876 C4.527,44.098 4.595,44.308 4.702,44.497 C4.954,44.939 5.453,45.25 6.019,45.25 L48.744,45.25 C49.311,45.25 49.81,44.939 50.062,44.497 C50.17,44.308 50.237,44.098 50.237,43.876 C50.237,43.13 49.554,42.5 48.744,42.5 L42.736,42.5 C43.329,41.665 43.853,40.783 44.298,39.851 L50.177,39.851 C51.582,39.851 52.726,40.995 52.726,42.401 L52.726,44.497 Z M50.177,39.101 L44.638,39.101 C44.931,38.409 45.199,37.702 45.408,36.966 C46.739,32.302 46.173,27.399 43.814,23.159 C40.611,17.4 34.525,13.823 27.931,13.823 C24.863,13.823 21.816,14.615 19.119,16.116 C18.016,16.73 16.997,17.449 16.062,18.254 C15.555,18.693 15.078,19.161 14.625,19.651 C12.705,21.718 11.276,24.215 10.48,27.005 C9.325,31.055 9.604,35.283 11.239,39.101 L4.586,39.101 C2.767,39.101 1.287,40.582 1.287,42.401 L1.287,59.555 C1.287,59.762 1.455,59.93 1.662,59.93 L53.101,59.93 C53.308,59.93 53.476,59.762 53.476,59.555 L53.476,42.401 C53.476,40.582 51.995,39.101 50.177,39.101 Z" id="Fill-1"></path>
            <path d="M13.572,39.476 C13.638,39.6 13.69,39.729 13.758,39.851 C13.762,39.858 13.764,39.865 13.768,39.87 C14.293,40.816 14.907,41.694 15.593,42.5 C15.813,42.757 16.041,43.007 16.275,43.249 C16.704,43.693 17.16,44.108 17.634,44.497 L18.859,44.497 C18.331,44.115 17.826,43.698 17.349,43.249 C17.093,43.008 16.845,42.758 16.604,42.5 C15.86,41.698 15.198,40.813 14.63,39.851 C14.562,39.736 14.488,39.624 14.423,39.507 C14.417,39.496 14.413,39.487 14.408,39.476 C14.34,39.354 14.287,39.225 14.223,39.101 C12.396,35.583 11.973,31.57 13.064,27.741 C14.198,23.767 16.812,20.473 20.424,18.465 C22.67,17.216 25.198,16.548 27.75,16.516 C27.811,16.515 27.871,16.511 27.932,16.511 C28.619,16.511 29.301,16.557 29.971,16.648 C34.783,17.286 39.071,20.159 41.466,24.466 C43.912,28.865 43.962,33.947 42.073,38.234 C41.944,38.526 41.817,38.818 41.671,39.101 C41.605,39.229 41.527,39.35 41.458,39.476 C41.389,39.603 41.318,39.728 41.245,39.851 C41.152,40.009 41.069,40.171 40.972,40.325 C40.48,41.095 39.914,41.82 39.285,42.5 C39.045,42.759 38.787,43.005 38.527,43.249 C38.057,43.692 37.562,44.111 37.028,44.497 L38.251,44.497 C38.532,44.266 38.798,44.024 39.061,43.776 C39.246,43.6 39.438,43.432 39.614,43.249 C39.847,43.008 40.059,42.753 40.274,42.5 C40.322,42.442 40.373,42.387 40.421,42.328 C41.063,41.552 41.624,40.723 42.106,39.851 C42.176,39.725 42.253,39.604 42.319,39.476 C42.384,39.353 42.443,39.228 42.505,39.101 C44.747,34.495 44.794,28.907 42.121,24.101 C39.261,18.957 33.823,15.761 27.932,15.761 C27.171,15.761 26.411,15.822 25.659,15.929 C25.021,16.021 24.388,16.148 23.764,16.315 C22.478,16.659 21.231,17.158 20.06,17.81 C16.273,19.916 13.532,23.369 12.344,27.536 C11.234,31.425 11.619,35.495 13.388,39.101 C13.449,39.226 13.508,39.353 13.572,39.476" id="Fill-2"></path>
            <path d="M22.285,26.864 C22.286,26.863 22.287,26.863 22.288,26.863 C22.29,26.862 22.29,26.861 22.291,26.861 L25.947,24.827 C25.949,24.825 25.951,24.826 25.952,24.825 C25.954,24.824 25.955,24.822 25.957,24.821 L26.174,24.7 C26.974,24.257 27.899,24.15 28.777,24.401 C29.656,24.651 30.386,25.23 30.83,26.028 C31.748,27.679 31.152,29.768 29.502,30.687 L23.498,34.027 L20.169,28.041 L22.285,26.864 Z M32.986,37.451 C32.983,37.452 32.979,37.452 32.976,37.453 C32.973,37.455 32.971,37.46 32.968,37.461 L30.017,39.101 L29.343,39.476 L29.318,39.491 L29.314,39.491 C29.313,39.492 29.313,39.493 29.312,39.493 L28.668,39.851 L27.194,40.672 L26.738,39.851 L26.32,39.101 L23.863,34.683 L31.448,30.465 C33.1,29.547 35.19,30.144 36.108,31.796 C36.546,32.584 36.656,33.533 36.408,34.4 C36.161,35.266 35.567,36.015 34.779,36.453 L32.986,37.451 Z M37.13,34.606 C37.436,33.533 37.306,32.405 36.763,31.429 C35.726,29.565 33.468,28.824 31.539,29.614 C32.16,28.412 32.19,26.932 31.485,25.664 C30.943,24.69 30.055,23.985 28.983,23.679 C27.949,23.385 26.869,23.504 25.921,23.996 L24.148,20.812 C24.049,20.631 23.82,20.565 23.639,20.666 C23.458,20.766 23.393,20.994 23.493,21.177 L25.26,24.35 L22.252,26.024 L20.486,22.848 C20.387,22.668 20.157,22.602 19.977,22.703 C19.796,22.803 19.73,23.031 19.831,23.212 L21.597,26.389 L17.427,28.708 C17.245,28.808 17.181,29.037 17.281,29.218 C17.381,29.399 17.609,29.465 17.791,29.364 L17.883,29.312 L19.514,28.406 L22.738,34.203 L22.863,34.428 C22.786,34.542 22.771,34.693 22.842,34.82 C22.91,34.944 23.038,35.013 23.17,35.013 C23.176,35.013 23.181,35.009 23.187,35.009 L23.615,35.78 L25.463,39.101 L25.672,39.476 L25.88,39.851 L26.539,41.036 L24.914,41.94 L24.813,41.995 C24.634,42.095 24.569,42.32 24.666,42.5 C24.667,42.501 24.667,42.503 24.668,42.505 C24.736,42.629 24.864,42.698 24.996,42.698 C25.058,42.698 25.12,42.682 25.178,42.651 L25.45,42.5 L29.352,40.329 L30.558,42.5 L30.975,43.249 L31.116,43.504 C31.185,43.628 31.312,43.697 31.444,43.697 C31.506,43.697 31.568,43.682 31.626,43.65 C31.772,43.568 31.838,43.405 31.807,43.249 C31.799,43.212 31.791,43.175 31.771,43.14 L31.416,42.5 L30.007,39.965 L30.211,39.851 L30.885,39.476 L33.014,38.293 L33.463,39.101 L33.672,39.476 L33.88,39.851 L34.778,41.468 C34.847,41.591 34.975,41.661 35.106,41.661 C35.168,41.661 35.23,41.646 35.288,41.614 C35.47,41.513 35.534,41.285 35.434,41.104 L34.738,39.851 L34.529,39.476 L34.321,39.101 L33.669,37.929 L35.144,37.109 C36.104,36.575 36.828,35.662 37.13,34.606 Z" id="Fill-3"></path>
            <path d="M8.11,53.482 L9,53.482 L8.555,50.511 L8.11,53.482 Z M10.216,55.345 L9.285,55.345 L9.125,54.28 L7.993,54.28 L7.833,55.345 L6.985,55.345 L7.925,49.471 L9.276,49.471 L10.216,55.345 Z" id="Fill-4"></path>
            <path d="M15.423,53.155 L15.423,53.936 C15.423,54.875 14.953,55.412 14.047,55.412 C13.14,55.412 12.67,54.875 12.67,53.936 L12.67,50.881 C12.67,49.941 13.14,49.403 14.047,49.403 C14.953,49.403 15.423,49.941 15.423,50.881 L15.423,51.451 L14.55,51.451 L14.55,50.822 C14.55,50.402 14.366,50.243 14.072,50.243 C13.778,50.243 13.593,50.402 13.593,50.822 L13.593,53.994 C13.593,54.414 13.778,54.565 14.072,54.565 C14.366,54.565 14.55,54.414 14.55,53.994 L14.55,53.155 L15.423,53.155" id="Fill-5"></path>
            <path d="M20.763,53.155 L20.763,53.936 C20.763,54.875 20.294,55.412 19.387,55.412 C18.48,55.412 18.011,54.875 18.011,53.936 L18.011,50.881 C18.011,49.941 18.48,49.403 19.387,49.403 C20.294,49.403 20.763,49.941 20.763,50.881 L20.763,51.451 L19.891,51.451 L19.891,50.822 C19.891,50.402 19.706,50.243 19.412,50.243 C19.119,50.243 18.934,50.402 18.934,50.822 L18.934,53.994 C18.934,54.414 19.119,54.565 19.412,54.565 C19.706,54.565 19.891,54.414 19.891,53.994 L19.891,53.155 L20.763,53.155" id="Fill-6"></path>
            <polyline id="Fill-7" points="24.35 51.947 25.617 51.947 25.617 52.786 24.35 52.786 24.35 54.506 25.945 54.506 25.945 55.345 23.427 55.345 23.427 49.471 25.945 49.471 25.945 50.31 24.35 50.31 24.35 51.947"></polyline>
            <path d="M29.54,50.31 L29.54,52.299 L29.976,52.299 C30.27,52.299 30.429,52.165 30.429,51.745 L30.429,50.864 C30.429,50.444 30.27,50.31 29.976,50.31 L29.54,50.31 Z M31.353,50.923 L31.353,51.686 C31.353,52.626 30.899,53.138 29.976,53.138 L29.54,53.138 L29.54,55.345 L28.616,55.345 L28.616,49.471 L29.976,49.471 C30.899,49.471 31.353,49.983 31.353,50.923 Z" id="Fill-8"></path>
            <polyline id="Fill-9" points="33.654 49.471 36.508 49.471 36.508 50.31 35.543 50.31 35.543 55.345 34.62 55.345 34.62 50.31 33.654 50.31 33.654 49.471"></polyline>
            <polyline id="Fill-10" points="39.935 51.947 41.202 51.947 41.202 52.786 39.935 52.786 39.935 54.506 41.53 54.506 41.53 55.345 39.012 55.345 39.012 49.471 41.53 49.471 41.53 50.31 39.935 50.31 39.935 51.947"></polyline>
            <path d="M45.124,50.31 L45.124,54.506 L45.645,54.506 C45.938,54.506 46.115,54.355 46.115,53.936 L46.115,50.881 C46.115,50.461 45.938,50.31 45.645,50.31 L45.124,50.31 Z M44.201,49.471 L45.662,49.471 C46.585,49.471 47.038,49.983 47.038,50.923 L47.038,53.894 C47.038,54.833 46.585,55.345 45.662,55.345 L44.201,55.345 L44.201,49.471 Z" id="Fill-11"></path>
            <path d="M5.589,16.958 L7.348,15.048 C7.73,14.633 7.975,13.904 7.465,13.435 C6.874,12.89 6.249,13.269 5.798,13.758 L4.997,14.628 C4.696,14.954 4.431,15.325 4.312,15.781 L5.589,16.958 Z M3.558,15.086 C3.662,14.617 3.935,14.266 4.242,13.933 L5.043,13.063 C5.463,12.608 5.507,12.096 5.038,11.665 C4.556,11.22 4.105,11.382 3.698,11.824 L2.008,13.659 L3.558,15.086 Z M8.02,15.805 L5.654,18.373 L0.585,13.704 L2.95,11.136 C3.739,10.28 4.823,10.098 5.714,10.917 C6.148,11.318 6.378,11.819 6.293,12.293 C6.782,12.09 7.536,12.144 8.236,12.788 C9.241,13.715 8.796,14.962 8.02,15.805 Z" id="Fill-12"></path>
            <polyline id="Fill-13" points="11.855 12.555 8.032 6.818 8.855 6.269 12.678 12.006 11.855 12.555"></polyline>
            <polyline id="Fill-14" points="15.715 3.984 17.818 9.474 16.903 9.825 14.8 4.335 12.504 5.215 12.141 4.265 17.621 2.165 17.985 3.115 15.715 3.984"></polyline>
            <path d="M27.184,2.594 C26.653,2.11 25.906,1.842 25.123,1.892 C23.594,1.989 22.483,3.159 22.581,4.707 C22.675,6.19 24.023,7.197 25.461,7.106 C26.354,7.049 27.121,6.585 27.576,5.89 L28.247,6.69 C27.604,7.507 26.62,8.041 25.515,8.111 C23.433,8.242 21.718,6.722 21.588,4.649 C21.46,2.622 23.097,1.002 25.068,0.878 C26.1,0.813 27.066,1.168 27.781,1.798 L27.184,2.594" id="Fill-15"></path>
            <path d="M35.438,3.075 C33.963,2.657 32.525,3.392 32.103,4.885 C31.697,6.316 32.635,7.715 34.021,8.108 C35.444,8.511 36.938,7.744 37.346,6.304 C37.759,4.846 36.852,3.475 35.438,3.075 Z M33.738,9.074 C31.73,8.505 30.618,6.5 31.185,4.5 C31.739,2.545 33.822,1.561 35.725,2.1 C37.688,2.656 38.853,4.647 38.291,6.629 C37.737,8.584 35.658,9.618 33.738,9.074 Z" id="Fill-16"></path>
            <polyline id="Fill-17" points="39.552 11.347 43.085 5.44 43.933 5.947 40.399 11.854 39.552 11.347"></polyline>
            <polyline id="Fill-18" points="47.437 8.18 48.353 9.106 47.723 15.952 51.464 12.25 52.179 12.971 47.282 17.817 46.581 17.108 47.168 10.967 43.801 14.299 43.105 13.597 47.312 9.433 47.437 8.18"></polyline>
        </g>
    </g>
</svg>
